file/toyota.svg

<svg viewBox="0 0 560 400" xmlns="http://www.w3.org/2000/svg" fill-rule="evenodd" clip-rule="evenodd"><path fill="#eb0a1e" d="M60 139.499h121.002v121.002h-121.002z"/><path d="M466.47 203.774l6.788-17.801 6.778 17.801h-13.567zm13.835-27.91h-14.098l-19.701 48.268h12.213l4.487-11.779h20.098l4.489 11.779h12.209l-19.697-48.268zm-99.435 39.876c-7.956 0-14.394-7.177-14.394-16.034 0-8.858 6.438-16.04 14.394-16.04 7.943 0 14.391 7.182 14.391 16.04-.001 8.857-6.448 16.034-14.391 16.034m0-41.531c-14.083 0-25.501 11.416-25.501 25.496 0 14.08 11.417 25.49 25.501 25.49 14.074 0 25.497-11.411 25.497-25.49 0-14.08-11.423-25.496-25.497-25.496m-100.609 41.531c-7.943 0-14.385-7.177-14.385-16.034 0-8.858 6.443-16.04 14.385-16.04 7.952 0 14.395 7.182 14.395 16.04 0 8.857-6.443 16.034-14.395 16.034m0-41.531c-14.08 0-25.486 11.416-25.486 25.496 0 14.08 11.406 25.49 25.486 25.49s25.496-11.411 25.496-25.49c.001-14.08-11.417-25.496-25.496-25.496m63.019 1.655l-12.493 19.529-12.502-19.529h-12.218l19.339 30.269v17.999h10.755v-17.994l19.337-30.273h-12.218v-.001zm105.796 0h-41.267v9.256h15.284v39.012h10.765v-39.012h15.217v-9.256h.001zm-237.822 9.256h15.289v39.012h10.76v-39.012h15.223v-9.256h-41.272v9.256z"/><path d="M120.501 172.531c-22.847 0-40.334 11.782-40.334 27.469 0 15.171 17.041 27.469 40.334 27.469 23.293 0 40.334-12.298 40.334-27.469 0-15.688-17.487-27.469-40.334-27.469zm25.149 11.782c.84 3.386-3.104 7.618-15.796 9.003-.845-8.624-3.402-15.91-7.642-17.454 5.707.161 11.117 1.126 15.834 2.837 4.411 1.665 7.152 3.788 7.605 5.614zm-18.799 15.555c0 10.927-3.282 15.457-6.35 15.457-3.068 0-6.35-4.529-6.35-15.457l.001-.114c2.039.173 4.162.263 6.35.263 2.188 0 4.311-.09 6.35-.263l.001.114zm-6.352-6.09c-2.14 0-4.12-.061-5.95-.174.964-7.146 3.524-11.3 5.952-11.3 2.427 0 4.988 4.154 5.952 11.3-1.831.113-3.811.174-5.953.174zm-25.151-9.465c.451-1.817 3.166-3.928 7.537-5.589 4.733-1.727 10.169-2.701 15.905-2.862-4.24 1.543-6.797 8.829-7.642 17.454-12.695-1.383-16.64-5.616-15.799-9.003zm-9.232 14.698c0-4.626 1.549-8.624 4.245-11.934.349 6.134 8.645 10.708 20.476 12.313l-.002.477c0 14.799 3.794 22.644 8 24.264-18.06-.648-32.719-11.772-32.719-25.121zm35.979 25.124c4.234-1.691 8.073-10.108 8.073-24.266l-.002-.477c11.83-1.606 20.127-6.18 20.476-12.313 2.696 3.31 4.245 7.308 4.245 11.934 0 13.366-14.699 24.501-32.792 25.123z" fill="#fff"/></svg>

<?xml version="1.0" encoding="UTF-8" standalone="no"?>
<!DOCTYPE svg PUBLIC "-//W3C//DTD SVG 1.1//EN" "http://www.w3.org/Graphics/SVG/1.1/DTD/svg11.dtd">
<svg width="100%" height="100%" viewBox="0 0 560 400" version="1.1" xmlns="http://www.w3.org/2000/svg" xmlns:xlink="http://www.w3.org/1999/xlink" xml:space="preserve" xmlns:serif="http://www.serif.com/" style="fill-rule:evenodd;clip-rule:evenodd;stroke-linejoin:round;stroke-miterlimit:1.41421;">
    <g transform="matrix(1.13636,0,0,1.13636,-38.1805,-27.2717)">
        <rect x="60" y="139.499" width="121.002" height="121.002" style="fill:rgb(235,10,30);"/>
        <path d="M466.47,203.774L473.258,185.973L480.036,203.774L466.469,203.774L466.47,203.774ZM480.305,175.864L466.207,175.864L446.506,224.132L458.719,224.132L463.206,212.353L483.304,212.353L487.793,224.132L500.002,224.132L480.305,175.864ZM380.87,215.74C372.914,215.74 366.476,208.563 366.476,199.706C366.476,190.848 372.914,183.666 380.87,183.666C388.813,183.666 395.261,190.848 395.261,199.706C395.26,208.563 388.813,215.74 380.87,215.74M380.87,174.209C366.787,174.209 355.369,185.625 355.369,199.705C355.369,213.785 366.786,225.195 380.87,225.195C394.944,225.195 406.367,213.784 406.367,199.705C406.367,185.625 394.944,174.209 380.87,174.209M280.261,215.74C272.318,215.74 265.876,208.563 265.876,199.706C265.876,190.848 272.319,183.666 280.261,183.666C288.213,183.666 294.656,190.848 294.656,199.706C294.656,208.563 288.213,215.74 280.261,215.74M280.261,174.209C266.181,174.209 254.775,185.625 254.775,199.705C254.775,213.785 266.181,225.195 280.261,225.195C294.341,225.195 305.757,213.784 305.757,199.705C305.758,185.625 294.34,174.209 280.261,174.209M343.28,175.864L330.787,195.393L318.285,175.864L306.067,175.864L325.406,206.133L325.406,224.132L336.161,224.132L336.161,206.138L355.498,175.865L343.28,175.865L343.28,175.864ZM449.076,175.864L407.809,175.864L407.809,185.12L423.093,185.12L423.093,224.132L433.858,224.132L433.858,185.12L449.075,185.12L449.075,175.864L449.076,175.864ZM211.254,185.12L226.543,185.12L226.543,224.132L237.303,224.132L237.303,185.12L252.526,185.12L252.526,175.864L211.254,175.864L211.254,185.12Z"/>
        <path d="M120.501,172.531C97.654,172.531 80.167,184.313 80.167,200C80.167,215.171 97.208,227.469 120.501,227.469C143.794,227.469 160.835,215.171 160.835,200C160.835,184.312 143.348,172.531 120.501,172.531ZM145.65,184.313C146.49,187.699 142.546,191.931 129.854,193.316C129.009,184.692 126.452,177.406 122.212,175.862C127.919,176.023 133.329,176.988 138.046,178.699C142.457,180.364 145.198,182.487 145.651,184.313L145.65,184.313ZM126.851,199.868C126.851,210.795 123.569,215.325 120.501,215.325C117.433,215.325 114.151,210.796 114.151,199.868L114.152,199.754C116.191,199.927 118.314,200.017 120.502,200.017C122.69,200.017 124.813,199.927 126.852,199.754L126.853,199.868L126.851,199.868ZM120.499,193.778C118.359,193.778 116.379,193.717 114.549,193.604C115.513,186.458 118.073,182.304 120.501,182.304C122.928,182.304 125.489,186.458 126.453,193.604C124.622,193.717 122.642,193.778 120.5,193.778L120.499,193.778ZM95.348,184.313C95.799,182.496 98.514,180.385 102.885,178.724C107.618,176.997 113.054,176.023 118.79,175.862C114.55,177.405 111.993,184.691 111.148,193.316C98.453,191.933 94.508,187.7 95.349,184.313L95.348,184.313ZM86.116,199.011C86.116,194.385 87.665,190.387 90.361,187.077C90.71,193.211 99.006,197.785 110.837,199.39L110.835,199.867C110.835,214.666 114.629,222.511 118.835,224.131C100.775,223.483 86.116,212.359 86.116,199.01L86.116,199.011ZM122.095,224.135C126.329,222.444 130.168,214.027 130.168,199.869L130.166,199.392C141.996,197.786 150.293,193.212 150.642,187.079C153.338,190.389 154.887,194.387 154.887,199.013C154.887,212.379 140.188,223.514 122.095,224.136L122.095,224.135Z" style="fill:white;"/>
    </g>
</svg>
